X:1
T: Anne
C:
R:Strathspey
Q:128
K:F
M:4/4
L:1/16
|:C2|c3A G3F DF3 C4|c3A G3F A4 G4|c3A G3F DF3 C4|Dd3 c3E F4 F2C2|
c3A G3F DF3 C4|c3A G3F A4 G4|c3A G3F DF3 C4|Dd3 c3E F4 F2_d2|
cf3 f3_d cg3 g3_a|f3g _a3b c'4 c4|c'3_a b3g a3f g3e|f3_d c3E F4 F2=d2|
cf3 f3d cg3 g3a|f3g a3=b c'4 c4|(3d'2c'2b2 (3c'2b2a2 (3b2a2g2 a3f|dB3 c3E F4F2:|
